packages/crayons-icon/icons/items.svg

<?xml version="1.0" encoding="UTF-8"?>
<svg width="16px" height="16px" viewBox="0 0 16 16" version="1.1" xmlns="http://www.w3.org/2000/svg" xmlns:xlink="http://www.w3.org/1999/xlink">
    <!-- Generator: Sketch 52.6 (67491) - http://www.bohemiancoding.com/sketch -->
    <title>icon/items</title>
    <desc>Created with Sketch.</desc>
    <g id="Icons-✅" stroke="none" stroke-width="1" fill="none" fill-rule="evenodd">
        <g id="Icons" transform="translate(-654.000000, -1728.000000)" fill="currentColor">
            <g id="icon/items" transform="translate(654.000000, 1728.000000)">
                <g id="items">
                    <path d="M8,1.7 L8,6.3 C8,7.23888407 7.23888407,8 6.3,8 L1.7,8 C0.761115925,8 1.14980138e-16,7.23888407 0,6.3 L0,1.7 C1.14980138e-16,0.761115925 0.761115925,-5.74900688e-17 1.7,0 L6.3,0 C7.23888407,5.74900688e-17 8,0.761115925 8,1.7 Z M6.6,6.3 L6.6,1.7 C6.6,1.53431458 6.46568542,1.4 6.3,1.4 L1.7,1.4 C1.53431458,1.4 1.4,1.53431458 1.4,1.7 L1.4,6.3 C1.4,6.46568542 1.53431458,6.6 1.7,6.6 L6.3,6.6 C6.46568542,6.6 6.6,6.46568542 6.6,6.3 Z M14.3,8 C15.2388841,8 16,8.76111593 16,9.7 L16,14.3 C16,15.2388841 15.2388841,16 14.3,16 L9.7,16 C8.76111593,16 8,15.2388841 8,14.3 L8,9.7 C8,8.76111593 8.76111593,8 9.7,8 L14.3,8 Z M14.6,14.3 L14.6,9.7 C14.6,9.62043505 14.5683929,9.54412888 14.512132,9.48786797 C14.4558711,9.43160705 14.3795649,9.4 14.3,9.4 L9.7,9.4 C9.62043505,9.4 9.54412888,9.43160705 9.48786797,9.48786797 C9.43160705,9.54412888 9.4,9.62043505 9.4,9.7 L9.4,14.3 C9.4,14.3795649 9.43160705,14.4558711 9.48786797,14.512132 C9.54412888,14.5683929 9.62043505,14.6 9.7,14.6 L14.3,14.6 C14.4656854,14.6 14.6,14.4656854 14.6,14.3 Z M14.3,0 C15.2388841,5.74900688e-17 16,0.761115925 16,1.7 L16,4.3 C16,5.23888407 15.2388841,6 14.3,6 L11.7,6 C10.7611159,6 10,5.23888407 10,4.3 L10,1.7 C10,0.761115925 10.7611159,7.76406505e-16 11.7,0 L14.3,0 Z M14.6,4.3 L14.6,1.7 C14.6,1.53431458 14.4656854,1.4 14.3,1.4 L11.7,1.4 C11.6204351,1.4 11.5441289,1.43160705 11.487868,1.48786797 C11.4316071,1.54412888 11.4,1.62043505 11.4,1.7 L11.4,4.3 C11.4,4.46568542 11.5343146,4.6 11.7,4.6 L14.3,4.6 C14.4656854,4.6 14.6,4.46568542 14.6,4.3 Z M4.3,10 C5.23888407,10 6,10.7611159 6,11.7 L6,14.3 C6,15.2388841 5.23888407,16 4.3,16 L1.7,16 C0.761115925,16 1.14980138e-16,15.2388841 0,14.3 L0,11.7 C9.48876711e-16,10.7611159 0.761115925,10 1.7,10 L4.3,10 Z M4.6,14.3 L4.6,11.7 C4.6,11.6204351 4.56839295,11.5441289 4.51213203,11.487868 C4.45587112,11.4316071 4.37956495,11.4 4.3,11.4 L1.7,11.4 C1.53431458,11.4 1.4,11.5343146 1.4,11.7 L1.4,14.3 C1.4,14.4656854 1.53431458,14.6 1.7,14.6 L4.3,14.6 C4.46568542,14.6 4.6,14.4656854 4.6,14.3 Z" id="Combined-Shape"></path>
                </g>
            </g>
        </g>
    </g>
</svg>

<svg viewBox="0 0 16 16"><path d="M8 1.7v4.6A1.7 1.7 0 0 1 6.3 8H1.7A1.7 1.7 0 0 1 0 6.3V1.7A1.7 1.7 0 0 1 1.7 0h4.6A1.7 1.7 0 0 1 8 1.7zM6.6 6.3V1.7a.3.3 0 0 0-.3-.3H1.7a.3.3 0 0 0-.3.3v4.6a.3.3 0 0 0 .3.3h4.6a.3.3 0 0 0 .3-.3zM14.3 8A1.7 1.7 0 0 1 16 9.7v4.6a1.7 1.7 0 0 1-1.7 1.7H9.7A1.7 1.7 0 0 1 8 14.3V9.7A1.7 1.7 0 0 1 9.7 8h4.6zm.3 6.3V9.7a.3.3 0 0 0-.3-.3H9.7a.3.3 0 0 0-.3.3v4.6a.3.3 0 0 0 .3.3h4.6a.3.3 0 0 0 .3-.3zM14.3 0A1.7 1.7 0 0 1 16 1.7v2.6A1.7 1.7 0 0 1 14.3 6h-2.6A1.7 1.7 0 0 1 10 4.3V1.7A1.7 1.7 0 0 1 11.7 0h2.6zm.3 4.3V1.7a.3.3 0 0 0-.3-.3h-2.6a.3.3 0 0 0-.3.3v2.6a.3.3 0 0 0 .3.3h2.6a.3.3 0 0 0 .3-.3zM4.3 10A1.7 1.7 0 0 1 6 11.7v2.6A1.7 1.7 0 0 1 4.3 16H1.7A1.7 1.7 0 0 1 0 14.3v-2.6A1.7 1.7 0 0 1 1.7 10h2.6zm.3 4.3v-2.6a.3.3 0 0 0-.3-.3H1.7a.3.3 0 0 0-.3.3v2.6a.3.3 0 0 0 .3.3h2.6a.3.3 0 0 0 .3-.3z" fill="currentColor" fill-rule="evenodd"/></svg>
